!!!OTL: Joy to the World
!!!COM: Handel, George Frederick
!!!ODT: 1742
!!!LYR: Watts, Isaac; 1719
!!!LAR: Mason, Lowell; 1839
!!!YOR: The Christmas Fake Book
!!!YOY: 1990
!!!AST: Christmas song
!!!YEC: Brian Luke, 2001
**kern	**harm
*k[f#c#]	*k[f#c#]
*M2/4	*M2/4
*D:	*D:
*>A	*>A
=1	=1
4dd	I
8.cc#	.
16b	IV
=2	=2
4.a	I
8g	ii
=3	=3
4f#	I
4e	V7
=4	=4
4.d	I
8a	.
=5	=5
4.b	IV
8b	.
=6	=6
4.cc#	V
8cc#	.
=7	=7
[2dd	I;
=8	=8
4.dd]	.
8dd	.
=9	=9
8dd	.
8cc#	.
8b	.
8a	.
=10	=10
8.a	.
16g	.
8f#	.
8dd	.
=11	=11
8dd	.
8cc#	.
8b	.
8a	.
=12	=12
8.a	.
16g	.
8f#	.
8f#	.
=13	=13
8f#	.
8f#	.
8f#	.
16f#	.
16g	.
=14	=14
4.a	.
16g	.
16f#	.
=15	=15
8e	V
8e	.
8e	.
16e	.
16f#	.
=16	=16
4.g	V7
16f#	.
16e	.
=17	=17
8d	I
4dd	.
8b	IV
=18	=18
8.a	I
16g	.
8f#	.
8g	ii
=19	=19
4f#	I
4e	V7
=20	=20
2d	I;
*-	*-
